X:99021
T:Regent's Favourite
P:Willie Brewed a Peck o' Maut
C:Traditional
R:Reel (8x32)
B:RSCDS Gr-21
Z:Anselm Lingnau <anselm@strathspey.org>
M:C
L:1/8
K:Eb
GA|"Eb"B2e2 "Ab"cBAG|"Fm"c2f2 "Bb"edcB|"Eb"e3c B2G2|"Ab"c2"F7"F2 "Bb"F2GA|
   "Eb"B2e2 "Ab"cBAG|"Fm"c2f2 "Bb"edcB|"Eb"e3c "Bb"B2G2|"Eb"B2"Ab"E2"Eb"E2||
ef|"Eb"g3e "Bb"f3d|"Eb"edcB e3G|"Fm"A3c "Eb"B2G2|"Ab"c2"F7"F2 "Bb"F2 ef|
   "Eb"g3e "Bb"f3d|"Eb"edcB "Eb7"e3G|"Ab"A3c "Bb7"B3A|"Eb"G2"Ab"E2"Eb"E2|]

